svg/benefit-1.svg

<svg xmlns="http://www.w3.org/2000/svg" xmlns:xlink="http://www.w3.org/1999/xlink" width="100%" viewBox="0 0 184 104">
  <defs>
    <linearGradient id="group-10-a" x1="32.39%" x2="72.16%" y1="22.815%" y2="80.64%">
      <stop offset="0%" stop-color="#FFD486"/>
      <stop offset="100%" stop-color="#FFB32A"/>
    </linearGradient>
    <linearGradient id="group-10-b" x1="14.45%" x2="87.18%" y1="2.192%" y2="100%">
      <stop offset="0%" stop-color="#EDF3FF"/>
      <stop offset="100%" stop-color="#CAD3E4"/>
    </linearGradient>
    <linearGradient id="group-10-c" x1="50%" x2="50%" y1="100%" y2="0%">
      <stop offset="0%" stop-color="#E8EEF8" stop-opacity="0"/>
      <stop offset="100%" stop-color="#DEE9FE"/>
    </linearGradient>
    <linearGradient id="group-10-e" x1="24.469%" x2="78.887%" y1="21.327%" y2="83.872%">
      <stop offset="0%" stop-color="#75A8FF"/>
      <stop offset="100%" stop-color="#4D82FF"/>
    </linearGradient>
    <polygon id="group-10-d" points="40.735 0 76.013 20.455 76.013 61.365 40.735 81.821 5.458 61.365 5.458 20.455"/>
  </defs>
  <g fill="none" fill-rule="evenodd" transform="translate(0 .23)">
    <polygon fill="url(#group-10-a)" points="45.187 72.83 58.268 80.415 58.268 95.584 45.187 103.168 32.107 95.584 32.107 80.415"/>
    <polygon fill="url(#group-10-b)" points="167.423 3.399 183.557 12.754 183.557 31.465 167.423 40.82 151.289 31.465 151.289 12.754"/>
    <polygon fill="url(#group-10-c)" points="21.013 30.659 42.027 42.843 42.027 67.211 21.013 79.395 0 67.211 0 42.843"/>
    <g transform="translate(55.937)">
      <mask id="group-10-f" fill="#fff">
        <use xlink:href="#group-10-d"/>
      </mask>
      <use fill="url(#group-10-e)" xlink:href="#group-10-d"/>
      <g fill="#FFF" fill-rule="nonzero" mask="url(#group-10-f)">
        <g transform="translate(20.139 19.306)">
          <path d="M36.5297173 8.2817189L36.5297173 6.7852673 38.6023253 8.7805361C39.1204774 9.2793533 40.1567814 9.2793533 40.7612921 8.7805361 41.0203681 8.5311275 41.1930854 8.1154465 41.1930854 7.7829017 41.1930854 7.4503569 41.0203681 7.0346759 40.7612921 6.7852673L36.0979239 2.2127763C35.5797719 1.7139591 34.6298265 1.7139591 34.0253158 2.2127763L29.016513 6.7021311C28.757437 6.9515397 28.5847197 7.2840845 28.5847197 7.6997655 28.5847197 8.0323103 28.6710783 8.4479913 28.9301543 8.6973999 29.4483064 9.2793533 30.4846104 9.2793533 31.0891211 8.7805361L33.6798812 6.5358587 33.6798812 8.2817189C33.6798812 13.9349805 28.9301543 18.5906077 22.9714061 18.5906077L17.8762446 18.5906077C10.8811924 18.5906077 4.92244417 23.7450521 4.23157481 30.4790843L4.23157481 30.6453567 4.05885747 30.6453567C1.64081472 31.3104463 0 33.4719875 0 35.8829373 0 38.9589767 2.59076009 41.3699265 5.6996722 41.3699265 8.89494297 41.3699265 11.3993444 38.8758405 11.3993444 35.8829373 11.3993444 33.5551237 9.84488834 31.4767187 7.51320426 30.6453567L7.34048692 30.5622205 7.34048692 30.3959481C7.94499761 25.2415037 12.5220071 21.3341023 17.8762446 21.3341023L22.8850475 21.4172385C30.4846104 21.4172385 36.5297173 15.5145683 36.5297173 8.2817189zM8.37679096 35.9660735C8.37679096 37.3793889 7.16776958 38.6264319 5.61331353 38.6264319 4.14521614 38.6264319 2.8498361 37.4625251 2.8498361 35.9660735 2.8498361 34.5527581 4.05885747 33.3057151 5.61331353 33.3057151 7.16776958 33.3888513 8.37679096 34.5527581 8.37679096 35.9660735zM33.4237567 40.5133685L31.0444842 38.1077164 33.4237567 35.7020643C33.6786787 35.4347696 33.8486267 35.0783767 33.8486267 34.6328856 33.8486267 34.1873945 33.7636527 33.8310016 33.4237567 33.5637069 32.9139126 32.9400193 31.8942244 32.9400193 31.2994063 33.5637069L28.8351598 36.0584572 26.3709133 33.5637069C25.7760952 33.0291175 24.8413811 33.0291175 24.2465629 33.5637069 23.9916409 33.8310016 23.8216929 34.2764927 23.8216929 34.6328856 23.8216929 34.9892785 23.9916409 35.4347696 24.2465629 35.7020643L26.6258354 38.1077164 24.2465629 40.5133685C23.6517448 41.0479579 23.6517448 42.1171366 24.2465629 42.7408242 24.756407 43.3645118 25.7760952 43.3645118 26.3709133 42.7408242L28.8351598 40.2460739 31.2994063 42.7408242C31.8092504 43.2754136 32.8289385 43.2754136 33.4237567 42.7408242 34.0185748 42.1171366 34.0185748 41.1370561 33.4237567 40.5133685zM16.8806316 7.4409664L14.4912775 5.05632435 16.8806316 2.6716823C17.4779701 2.14176184 17.4779701 1.08192093 16.8806316.463680399 16.3686272-.154560133 15.3446183-.154560133 14.7472797.463680399L12.2725916 2.93664253 9.88323744.552000475C9.28589892.022080019 8.34722409.022080019 7.74988556.552000475 7.23788111 1.17024101 7.23788111 2.14176184 7.74988556 2.76000237L10.1392397 5.14464443 7.74988556 7.52928648C7.49388334 7.7942467 7.32321519 8.14752701 7.32321519 8.58912739 7.32321519 8.94240769 7.40854926 9.38400807 7.74988556 9.6489683 8.26189001 10.2672088 9.28589892 10.2672088 9.88323744 9.6489683L12.3579256 7.17600617 14.8326138 9.6489683C15.3446183 10.1788888 16.3686272 10.1788888 16.9659657 9.6489683 17.2219679 9.38400807 17.3926361 8.94240769 17.3926361 8.58912739 17.3926361 8.14752701 17.2219679 7.7942467 16.8806316 7.4409664z"/>
        </g>
      </g>
    </g>
  </g>
</svg>

<svg xmlns="http://www.w3.org/2000/svg" xmlns:xlink="http://www.w3.org/1999/xlink" width="100%" viewBox="0 0 184 117">
    <defs>
        <linearGradient id="prefix__c" x1="32.39%" x2="72.16%" y1="22.815%" y2="80.64%">
            <stop offset="0%" stop-color="#FFD486"/>
            <stop offset="100%" stop-color="#FFB32A"/>
        </linearGradient>
        <linearGradient id="prefix__d" x1="14.45%" x2="87.18%" y1="2.192%" y2="100%">
            <stop offset="0%" stop-color="#EDF3FF"/>
            <stop offset="100%" stop-color="#CAD3E4"/>
        </linearGradient>
        <linearGradient id="prefix__e" x1="50%" x2="50%" y1="100%" y2="0%">
            <stop offset="0%" stop-color="#E8EEF8" stop-opacity="0"/>
            <stop offset="100%" stop-color="#DEE9FE"/>
        </linearGradient>
        <linearGradient id="prefix__g" x1="24.469%" x2="78.887%" y1="21.327%" y2="83.872%">
            <stop offset="0%" stop-color="#75A8FF"/>
            <stop offset="100%" stop-color="#4D82FF"/>
        </linearGradient>
        <path id="prefix__a" d="M43.77 0L87.54 25.379 87.54 76.137 43.77 101.516 0 76.137 0 25.379z"/>
        <path id="prefix__f" d="M40.735 0L76.013 20.455 76.013 61.365 40.735 81.821 5.458 61.365 5.458 20.455z"/>
    </defs>
    <g fill="none" fill-rule="evenodd">
        <g transform="translate(0 3) translate(52.798)">
            <mask id="prefix__b" fill="#fff">
                <use xlink:href="#prefix__a"/>
            </mask>
            <path stroke="#4176E9" stroke-width="2.308" d="M88.694 76.802L43.77 102.85-1.154 76.802V24.714L43.77-1.334l44.924 26.048v52.088z"/>
            <path fill="#4176E9" d="M-25.239 12.069L38.165 16.51 43.563 113.004 -25.239 75.079z" mask="url(#prefix__b)" transform="rotate(180 9.162 62.536)"/>
            <path fill="#4176E9" d="M43.809 -10.753L107.212 -6.311 112.61 90.182 43.809 52.258z" mask="url(#prefix__b)"/>
        </g>
        <path fill="url(#prefix__c)" d="M45.187 83.061L58.268 90.645 58.268 105.814 45.187 113.398 32.107 105.814 32.107 90.645z" transform="translate(0 3)"/>
        <path fill="url(#prefix__d)" d="M167.423 13.63L183.557 22.985 183.557 41.695 167.423 51.05 151.289 41.695 151.289 22.985z" transform="translate(0 3)"/>
        <path fill="url(#prefix__e)" d="M21.013 40.889L42.027 53.073 42.027 77.441 21.013 89.625 0 77.441 0 53.073z" transform="translate(0 3)"/>
        <g transform="translate(0 3) translate(55.937 10.23)">
            <mask id="prefix__h" fill="#fff">
                <use xlink:href="#prefix__f"/>
            </mask>
            <use fill="url(#prefix__g)" xlink:href="#prefix__f"/>
            <g fill="#FFF" fill-rule="nonzero" mask="url(#prefix__h)">
                <g>
                    <path d="M36.53 8.282V6.785l2.072 1.996c.518.498 1.555.498 2.16 0 .258-.25.431-.666.431-.998 0-.333-.173-.748-.432-.998l-4.663-4.572c-.518-.499-1.468-.499-2.073 0l-5.008 4.49c-.26.249-.432.581-.432.997 0 .332.086.748.345.997.518.582 1.555.582 2.16.084l2.59-2.245v1.746c0 5.653-4.75 10.309-10.709 10.309h-5.095c-6.995 0-12.954 5.154-13.644 11.888v.166h-.173C1.64 31.31 0 33.472 0 35.883c0 3.076 2.59 5.487 5.7 5.487 3.195 0 5.7-2.494 5.7-5.487 0-2.328-1.555-4.406-3.887-5.238l-.173-.083v-.166c.605-5.154 5.182-9.062 10.536-9.062l5.009.083c7.6 0 13.645-5.902 13.645-13.135zM8.377 35.966c0 1.413-1.21 2.66-2.764 2.66-1.468 0-2.763-1.163-2.763-2.66 0-1.413 1.209-2.66 2.763-2.66 1.555.083 2.764 1.247 2.764 2.66zM33.424 40.513l-2.38-2.405 2.38-2.406c.255-.267.425-.624.425-1.07 0-.445-.085-.801-.425-1.068-.51-.624-1.53-.624-2.125 0l-2.464 2.494-2.464-2.494c-.595-.535-1.53-.535-2.124 0-.255.267-.425.712-.425 1.069 0 .356.17.802.425 1.07l2.379 2.405-2.38 2.405c-.594.535-.594 1.604 0 2.228.51.624 1.53.624 2.125 0l2.464-2.495 2.464 2.495c.51.534 1.53.534 2.125 0 .595-.624.595-1.604 0-2.228zM16.88 7.441l-2.389-2.385 2.39-2.384c.597-.53.597-1.59 0-2.208-.512-.619-1.536-.619-2.134 0l-2.474 2.473L9.883.552c-.597-.53-1.536-.53-2.133 0-.512.618-.512 1.59 0 2.208l2.39 2.385-2.39 2.384c-.256.265-.427.619-.427 1.06 0 .353.086.795.427 1.06.512.618 1.536.618 2.133 0l2.475-2.473 2.475 2.473c.512.53 1.536.53 2.133 0 .256-.265.427-.707.427-1.06 0-.441-.171-.795-.512-1.148z" transform="translate(20.139 19.306)"/>
                </g>
            </g>
        </g>
    </g>
</svg>
